dist/svgs/devui-icons/editor/at.svg

<?xml version="1.0" encoding="UTF-8"?>
<svg width="16px" height="16px" viewBox="0 0 16 16" version="1.1" xmlns="http://www.w3.org/2000/svg" xmlns:xlink="http://www.w3.org/1999/xlink">
    <title>释义_富文本编辑/@-16x16</title>
    <desc>Created with Sketch.</desc>
    <g id="释义_富文本编辑/@-16x16" stroke="none" stroke-width="1" fill="none" fill-rule="evenodd">
        <path d="M13.1679291,3 C11.9897511,1.67134255 10.2609154,1 8.03528372,1 C4.15223964,1 1.00441046,4.13400675 1.00441046,8 C1.00441046,11.8659932 4.15223964,15 8.03528372,15 C9.23350157,15 10.5062168,14.9873583 12.0529256,14.2590332 C13.5996343,13.5307081 14.686397,12.6765951 15.066157,12 L16,12 C14.6106616,14.3912055 11.0094731,16 8.03528372,16 C3.59751906,16 0,12.418278 0,8 C0,3.581722 3.59751906,0 8.03528372,0 C10.6779148,0 13.1939278,0.929443359 14.4870789,3.37976074 C15.78023,5.83007812 14.9909978,9 14.4870789,10 C13.98316,11 12.8779623,12.2784621 11.5353943,12.5315389 C10.4239873,12.7410415 9.71228788,12.3586674 9.4002961,11.3844168 C8.18675733,12.6019616 6.64651749,13.1052947 5.41066746,12.5315389 C3.65105092,11.7146193 3.17483565,9.02353593 4.34701089,6.52083608 C5.51918614,4.01813624 7.89587296,2.65154139 9.65548951,3.46846106 C10.1920052,3.71754385 10.6092069,4.14086197 10.8967486,4.67995029 L11.0485151,4 L12.0529256,4 C11.868563,4.73897298 11.6145586,5.78889974 11.2909125,7.14978027 C10.8054434,9.19110107 9.68853942,11.7708895 11.5353943,11.3854447 C13.3822491,11 14.2878982,8.32004971 14.2878982,7 C14.2878982,5.67995029 14.3461071,4.32865745 13.1679291,3 Z M10.3514781,7.12289307 C10.4715678,5.84777373 10.0778606,4.76792902 9.2310073,4.37476885 C7.97413834,3.7912548 6.19505611,4.94129447 5.25731592,6.94345435 C4.31957573,8.94561422 4.57828071,11.0417171 5.83514966,11.6252311 C7.09201862,12.2087452 8.87110085,11.0587055 9.80884105,9.05654565 C9.90230759,8.85698615 9.98388802,8.65649336 10.0537787,8.45665808 L10.3514781,7.12289307 Z" id="形状" fill="#293040"></path>
    </g>
</svg>

<svg xmlns="http://www.w3.org/2000/svg" viewBox="0 0 16 16"><path fill-rule="evenodd" d="M13.168 3C11.99 1.671 10.26 1 8.035 1c-3.883 0-7.03 3.134-7.03 7s3.147 7 7.03 7c1.199 0 2.471-.013 4.018-.741 1.547-.728 2.633-1.582 3.013-2.259H16c-1.39 2.391-4.99 4-7.965 4C3.598 16 0 12.418 0 8s3.598-8 8.035-8c2.643 0 5.159.93 6.452 3.38 1.293 2.45.504 5.62 0 6.62s-1.609 2.278-2.952 2.532c-1.111.209-1.823-.173-2.135-1.148-1.213 1.218-2.753 1.721-3.99 1.148-1.759-.817-2.235-3.508-1.063-6.011s3.549-3.87 5.308-3.053c.537.25.954.673 1.242 1.212l.152-.68h1.004c-.184.739-.438 1.789-.762 3.15-.486 2.041-1.602 4.62.244 4.235C13.382 11 14.288 8.32 14.288 7c0-1.32.058-2.671-1.12-4zM10.35 7.123c.12-1.275-.273-2.355-1.12-2.748-1.257-.584-3.036.566-3.974 2.568-.937 2.003-.679 4.099.578 4.682 1.257.584 3.036-.566 3.974-2.568.093-.2.175-.4.245-.6l.297-1.334z"/></svg>
